X:1
T: Loudon's Bonnie Woods
C:
R:Strathspey
Q: 128
K:A
M:4/4
L:1/16
|:E2|A4 A3d ce3 e4|d3B c3A B3A ((3G2F2E2) |A4 A3d ce3 e4|f3a ((3g2a2b2) a4 ac'3|
A4 A3d ce3 e4|d3B c3A B3A ((3G2F2E2) |A4 A3d ce3 e4|f3a ((3g2a2b2) a4 a3e|
a3b c'3a b3a ge3|f3g a3f e3d cA3|a3b c'3a b3a ((3g2f2e2) |fa3 gb3 a4 a3e|
a3b c'3a b3a ge3|f3g a3f e3d c3B|A4 A3d ce3 e4|f3a ((3g2a2b2) a4 a2:|
